Newaita-dark/actions/symbolic/browser-download-symbolic.svg

<svg height="16" viewBox="0 0 16 16" width="16" xmlns="http://www.w3.org/2000/svg"><g fill="#e0e0e0"><path d="m6.945312.785156c-.367187 0-.660156.296875-.660156.664063v6.285156l-2.570312-.59375c-.328125-.078125-.558594.320313-.328125.566406l4.300781 4.632813c.136719.144531.367188.144531.503906 0l4.296875-4.632813c.203125-.21875.050781-.570312-.242187-.574219-.03125-.003906-.058594 0-.085938.007813l-2.566406.59375v-6.285156c0-.367188-.296875-.664063-.664062-.664063zm0 0"/><path d="m13.5625 13.6875v.660156c0 .367188-.296875.660156-.664062.660156h-9.921876c-.363281 0-.660156-.292968-.660156-.660156v-.660156c0-.367188.296875-.664062.660156-.664062h9.921876c.367187 0 .664062.296874.664062.664062zm0 0"/></g></svg>

<?xml version="1.0" encoding="UTF-8"?>
<svg xmlns="http://www.w3.org/2000/svg" xmlns:xlink="http://www.w3.org/1999/xlink" width="16px" height="16px" viewBox="0 0 16 16" version="1.1">
<g id="surface1">
<path style=" stroke:none;fill-rule:nonzero;fill:rgb(87.843138%,87.843138%,87.843138%);fill-opacity:1;" d="M 6.945312 0.785156 C 6.578125 0.785156 6.285156 1.082031 6.285156 1.449219 L 6.285156 7.734375 L 3.714844 7.140625 C 3.386719 7.0625 3.15625 7.460938 3.386719 7.707031 L 7.6875 12.339844 C 7.824219 12.484375 8.054688 12.484375 8.191406 12.339844 L 12.488281 7.707031 C 12.691406 7.488281 12.539062 7.136719 12.246094 7.132812 C 12.214844 7.128906 12.1875 7.132812 12.160156 7.140625 L 9.59375 7.734375 L 9.59375 1.449219 C 9.59375 1.082031 9.296875 0.785156 8.929688 0.785156 Z M 6.945312 0.785156 "/>
<path style=" stroke:none;fill-rule:nonzero;fill:rgb(87.843138%,87.843138%,87.843138%);fill-opacity:1;" d="M 13.5625 13.6875 L 13.5625 14.347656 C 13.5625 14.714844 13.265625 15.007812 12.898438 15.007812 L 2.976562 15.007812 C 2.613281 15.007812 2.316406 14.714844 2.316406 14.347656 L 2.316406 13.6875 C 2.316406 13.320312 2.613281 13.023438 2.976562 13.023438 L 12.898438 13.023438 C 13.265625 13.023438 13.5625 13.320312 13.5625 13.6875 Z M 13.5625 13.6875 "/>
</g>
</svg>
